fs/slide_text_28_regular.svg

<svg viewBox="0 0 28 28" fill="none" xmlns="http://www.w3.org/2000/svg" height="1em" width="1em">
  <path d="M7.7277 9C7.32567 9 6.99976 9.32591 6.99976 9.72794V9.77206C6.99976 10.1741 7.32567 10.5 7.7277 10.5H13.2718C13.6738 10.5 13.9998 10.1741 13.9998 9.77206V9.72794C13.9998 9.32591 13.6738 9 13.2718 9H7.7277ZM7.7277 13C7.32567 13 6.99976 13.3259 6.99976 13.7279V13.7721C6.99976 14.1741 7.32567 14.5 7.7277 14.5H18.2718C18.6738 14.5 18.9998 14.1741 18.9998 13.7721V13.7279C18.9998 13.3259 18.6738 13 18.2718 13H7.7277ZM6.99976 17.7279C6.99976 17.3259 7.32567 17 7.7277 17H15.2718C15.6738 17 15.9998 17.3259 15.9998 17.7279V17.7721C15.9998 18.1741 15.6738 18.5 15.2718 18.5H7.7277C7.32567 18.5 6.99976 18.1741 6.99976 17.7721V17.7279ZM5.75391 4C3.68284 4 2.00391 5.67893 2.00391 7.75V20.2501C2.00391 22.3211 3.68284 24.0001 5.75391 24.0001H22.2505C24.3216 24.0001 26.0005 22.3211 26.0005 20.2501V7.75C26.0005 5.67893 24.3216 4 22.2505 4H5.75391ZM3.50391 7.75C3.50391 6.50736 4.51127 5.5 5.75391 5.5H22.2505C23.4932 5.5 24.5005 6.50736 24.5005 7.75V20.2501C24.5005 21.4927 23.4932 22.5001 22.2505 22.5001H5.75391C4.51127 22.5001 3.50391 21.4927 3.50391 20.2501V7.75Z" fill="#212121"/>
</svg>

<svg viewBox="0 0 28 28" fill="none" xmlns="http://www.w3.org/2000/svg" height="1em" width="1em">
  <path d="M7.728 9A.728.728 0 0 0 7 9.728v.044c0 .402.326.728.728.728h5.544A.728.728 0 0 0 14 9.772v-.044A.728.728 0 0 0 13.272 9H7.728Zm0 4a.728.728 0 0 0-.728.728v.044c0 .402.326.728.728.728h10.544a.728.728 0 0 0 .728-.728v-.044a.728.728 0 0 0-.728-.728H7.728ZM7 17.728c0-.402.326-.728.728-.728h7.544c.402 0 .728.326.728.728v.044a.728.728 0 0 1-.728.728H7.728A.728.728 0 0 1 7 17.772v-.044ZM5.754 4a3.75 3.75 0 0 0-3.75 3.75v12.5A3.75 3.75 0 0 0 5.754 24H22.25A3.75 3.75 0 0 0 26 20.25V7.75A3.75 3.75 0 0 0 22.25 4H5.755Zm-2.25 3.75a2.25 2.25 0 0 1 2.25-2.25H22.25a2.25 2.25 0 0 1 2.25 2.25v12.5a2.25 2.25 0 0 1-2.25 2.25H5.755a2.25 2.25 0 0 1-2.25-2.25V7.75Z" fill="#212121"/>
</svg>
